X: 8
T: Archanioł Gabriel
C: Anonim
%%abc-version 2.0
%%abcx-abcm2ps-target-version 5.9.1 (29 Sep 2008)
%%abc-creator hum2abc beta
%%abcx-conversion-date 2021/10/04 07:56:47
%%abc-edited-by Marcin Konik
%%abc-edited-by Anna Matuszewska
%%abcx-initial-encoding-date 2020-02-04
%%humdrum-veritas 2174937720
%%humdrum-veritas-data 2194312364
%%linebreak <none>
%%barnumbers 0
L: 1/4
N: Derived from pl-stab--st-a--008_anonim--archaniol-gabriel.krn
K: F clef=treble
G2G2B2B2 [|] 
G4A4 [|] 
G4A2B3 [|] 
cd4c2 [|] 
d4d2d2 [|] 
c2B4A2 [|] 
B4G4 [|] 
B2A4G4 [|] 
F2G4 [|] 
d2d2d2d2 [|] 
d4d4 [|] 
G4A2B3 [|] 
cd4c2 [|] 
d4d2d2 [|] 
c2B4A2 [|] 
B4G4 [|] 
B2A4G4 [|] 
F2!fermata!G6 |]  



